svg/u1f932_1f3fb.svg

<svg viewBox="0 0 128 128" xmlns="http://www.w3.org/2000/svg">
  <path d="m122 51.67c-0.91-2.68-2.67-3.74-3.99-4.17-1.67-0.53-3.51-0.3-4.83 0.27-0.04-3.21-0.32-8.37-1.46-14.1-1.43-7.16-3.37-14.15-9.79-14.15-0.4 0-0.88 0.06-1.38 0.18-0.97-2.18-3.41-6.2-8.33-6.2-1.6 0-4.15 0.82-6.05 3.14-1.03 1.26-2.08 3.25-2.25 6.22-0.97-0.63-2.19-1.04-3.72-1.04-2.18 0-4.01 0.78-5.3 2.27-1.14 1.32-2.36 3.86-1.76 8.42-1.25-0.58-2.69-0.77-4.28-0.5-2.19 0.36-3.77 1.94-4.85 3.55-0.91-1.77-2.4-3.15-4.83-3.55-1.59-0.26-3.04-0.08-4.28 0.5 0.59-4.57-0.62-7.11-1.76-8.43-1.29-1.48-3.12-2.27-5.3-2.27-1.42 0-2.67 0.36-3.72 1.05-0.17-2.98-1.22-4.97-2.25-6.23-1.9-2.32-4.45-3.14-6.05-3.14-4.92 0-7.36 4.01-8.33 6.2-0.5-0.12-0.98-0.18-1.38-0.18-6.43 0-8.36 6.99-9.79 14.15-1.15 5.73-1.42 10.89-1.46 14.1-1.33-0.56-3.16-0.8-4.83-0.26-1.36 0.42-3.11 1.48-4.03 4.17-2.28 6.69-1.74 27.15-0.59 35.69 3.07 22.69 24.85 25.14 34.08 25.14 11.66 0 19.96-7.8 23.52-14.49 0.37-0.7 0.69-1.4 0.99-2.09 0.3 0.71 0.62 1.4 0.99 2.09 3.56 6.68 11.86 14.49 23.52 14.49 9.22 0 31.01-2.45 34.08-25.14 1.15-8.54 1.69-29.01-0.59-35.69z" fill="#F9DDBD"/>
  <radialGradient id="a" cx="64.5" cy="60.314" gradientTransform="matrix(1 0 0 .9427 0 3.4578)" gradientUnits="userSpaceOnUse" r="60.535">
    <stop offset=".6668" stop-color="#F9DDBD"/>
    <stop offset="1" stop-color="#EDC391"/>
  </radialGradient>
  <path d="m122 51.67c-0.91-2.68-2.67-3.74-3.99-4.17-4.18-1.34-7.18 1.06-7.65 5.19-0.26 2.31-0.32 4.96-2.1 6.45-1.37 1.15-3.33 1.2-5.12 1.2-2.29-0.01-4.59-0.01-6.88 0.11-10.58 0.58-20.99 4.04-29.82 9.91-0.55 0.36-1.12 0.75-1.78 0.79-0.56 0.03-1.1-0.2-1.61-0.44-3.21-1.57-5.92-4.04-9.12-5.64-3.43-1.71-7.29-2.34-11.09-2.8-7.28-0.88-14.63-1.21-21.96-0.99-0.89 0.03-1.86 0.03-2.56-0.52-0.87-0.69-0.94-1.95-1.02-3.06-0.32-4.29-1.49-12.06-7.32-10.19-1.31 0.41-3.06 1.47-3.98 4.16-2.28 6.69-1.74 27.15-0.59 35.69 3.07 22.69 24.85 25.14 34.08 25.14 11.66 0 19.96-7.8 23.52-14.49 0.37-0.7 0.69-1.4 0.99-2.09 0.3 0.71 0.62 1.4 0.99 2.09 3.56 6.68 11.86 14.49 23.52 14.49 9.22 0 31.01-2.45 34.08-25.14 1.15-8.54 1.69-29.01-0.59-35.69z" fill="url(#a)"/>
  <path d="m122 51.67c-0.91-2.68-2.67-3.74-3.99-4.17-1.67-0.53-3.51-0.3-4.83 0.27-0.04-3.21-0.32-8.37-1.46-14.1-1.43-7.16-3.37-14.15-9.79-14.15-0.4 0-0.88 0.06-1.38 0.18-0.97-2.18-3.41-6.2-8.33-6.2-1.6 0-4.15 0.82-6.05 3.14-1.03 1.26-2.08 3.25-2.25 6.22-0.97-0.63-2.19-1.04-3.72-1.04-2.18 0-4.01 0.78-5.3 2.27-1.14 1.32-2.36 3.86-1.76 8.42-1.25-0.58-2.69-0.77-4.28-0.5-2.19 0.36-3.77 1.94-4.85 3.55-0.91-1.77-2.4-3.15-4.83-3.55-1.59-0.26-3.04-0.08-4.28 0.5 0.59-4.57-0.62-7.11-1.76-8.43-1.29-1.48-3.12-2.27-5.3-2.27-1.42 0-2.67 0.36-3.72 1.05-0.17-2.98-1.22-4.97-2.25-6.23-1.9-2.32-4.45-3.14-6.05-3.14-4.92 0-7.36 4.01-8.33 6.2-0.5-0.12-0.98-0.18-1.38-0.18-6.43 0-8.36 6.99-9.79 14.15-1.15 5.73-1.42 10.89-1.46 14.1-1.33-0.56-3.16-0.8-4.83-0.26-1.36 0.42-3.11 1.48-4.03 4.17-2.28 6.69-1.74 27.15-0.59 35.69 3.07 22.69 24.85 25.14 34.08 25.14 11.66 0 19.96-7.8 23.52-14.49 0.37-0.7 0.69-1.4 0.99-2.09 0.3 0.71 0.62 1.4 0.99 2.09 3.56 6.68 11.86 14.49 23.52 14.49 9.22 0 31.01-2.45 34.08-25.14 1.15-8.54 1.69-29.01-0.59-35.69zm-33.52-33.13c1.23-1.5 2.91-2.04 3.73-2.04 3.27 0 4.96 2.94 5.62 4.48-0.4 0.3-0.8 0.65-1.16 1.06-1.12 1.29-2.34 3.64-1.79 7.5 0.12 0.8 0.27 1.76 0.45 2.85 0.94 5.8 2.48 15.33 1.94 26.29-1.69-0.1-4.57-0.13-8.13 0.34 0.1-2.43 0.27-7.61-0.05-13.59-0.5-9.29-1.67-17.7-1.88-18.71-0.7-3.48-0.26-6.31 1.27-8.18zm-11.32 7.52c0.71-0.82 1.73-1.23 3.03-1.23 3.9 0 4.36 4.05 4.58 6.11s1 8.71 1.32 14.66c0.34 6.37 0.11 11.83 0.03 13.89v0.04c-2.75 0.54-5.76 1.39-8.85 2.72 0.28-2.86 0.73-8.6 0.73-15.8 0-4.29-0.79-8.37-1.37-11.34-0.21-1.07-0.39-2-0.49-2.74-0.43-2.88-0.07-5.06 1.02-6.31zm-29.35-1.24c1.3 0 2.32 0.42 3.03 1.23 1.09 1.25 1.44 3.43 1.03 6.3-0.11 0.74-0.29 1.67-0.49 2.74-0.58 2.98-1.37 7.05-1.37 11.34 0 7.19 0.45 12.94 0.73 15.8-3.1-1.32-6.1-2.17-8.85-2.72v-0.04c-0.09-2.06-0.31-7.52 0.03-13.89 0.45-8.39 1.41-15.58 1.73-17.69 0.35-1.89 2.46-3.07 4.16-3.07zm-12.02-8.32c0.83 0 2.5 0.54 3.73 2.04 1.53 1.87 1.97 4.7 1.27 8.18-0.2 1.01-1.38 9.42-1.88 18.71-0.32 5.98-0.15 11.16-0.05 13.59-3.56-0.47-6.45-0.43-8.13-0.34-0.54-10.96 1-20.5 1.94-26.29 0.18-1.09 0.33-2.05 0.45-2.85 0.55-3.86-0.67-6.21-1.79-7.5-0.36-0.42-0.75-0.76-1.16-1.06 0.66-1.54 2.35-4.48 5.62-4.48zm3.7 93c-10.48 0-28.45-2.93-31.1-22.55-1.2-8.89-1.49-28.62 0.46-34.32 0.42-1.22 1.09-1.96 2.06-2.27 1.27-0.4 2.68 0.07 3.14 0.37 1.96 1.27 2.68 4.16 2.68 5.89 0 10.27 1.83 16.79 1.91 17.06 0.17 0.59 0.68 1.06 1.29 1.08 9.07 0.24 15.07 6.24 17.16 15.44 0.19 0.81 1.98 0.8 1.91-0.2-1-14-10.24-18.72-18-20-0.49-2.11-1.28-5.75-1.28-13.38 0-2.51-0.72-4.62-1.88-6.29-0.06-2.02-0.11-8.6 1.39-16.07 1.73-8.67 3.53-11.74 6.85-11.74 0.58 0 1.96 0.31 2.98 1.5 1.03 1.19 1.4 2.91 1.08 5.12-0.11 0.79-0.26 1.72-0.44 2.79-1 6.19-2.68 16.55-1.89 28.5 0 0.02 0.01 0.04 0.01 0.06v0.04c0 0.03 0.01 0.05 0.02 0.08 0.01 0.06 0.02 0.12 0.04 0.17 0.01 0.04 0.03 0.08 0.04 0.12 0.02 0.05 0.04 0.1 0.07 0.14 0.02 0.04 0.04 0.08 0.07 0.11 0.03 0.04 0.05 0.08 0.09 0.12 0.03 0.04 0.06 0.07 0.09 0.1s0.07 0.06 0.1 0.09c0.04 0.03 0.07 0.06 0.11 0.09s0.08 0.05 0.12 0.07 0.08 0.05 0.13 0.07c0.04 0.02 0.08 0.03 0.13 0.05s0.09 0.03 0.14 0.04c0.04 0.01 0.09 0.02 0.14 0.02 0.05 0.01 0.1 0.01 0.15 0.01h0.05 0.1c0.02 0 0.03-0.01 0.05-0.01h0.05c0.13-0.02 13.51-1.66 25.81 6.25 0.25 0.16 0.53 0.24 0.81 0.24 0.49 0 0.98-0.24 1.26-0.69 0.45-0.7 0.25-1.62-0.45-2.07-1.01-0.65-2.02-1.23-3.03-1.76-0.08-0.65-0.91-7.79-0.91-17.32 0-2.67 0.34-5.3 0.73-7.6 0.08-0.14 1.23-5 4.92-3.86 3.35 1.01 3.35 4.01 3.57 5.7 0.11 1.47 0.08 3.31-0.18 5.65-0.01 0.09-0.59 8.9 0 21.44 0.12 2.49 0.36 4.91 0.59 7.26 0.75 7.49 1.46 14.56-2.27 21.56-3.17 5.95-10.54 12.9-20.87 12.9zm80.13-22.55c-2.65 19.62-20.63 22.55-31.1 22.55-10.33 0-17.7-6.95-20.87-12.9-0.89-1.68-1.56-3.38-2.03-5.22-0.02-0.08-0.05-0.16-0.09-0.23 1.18-5.42 0.65-10.8 0.09-16.41-0.23-2.31-0.47-4.7-0.58-7.1-0.58-12.36-0.01-21.01-0.01-21.04 0.16-1.43 0.46-4.12 0.15-6.82 0.59-1.58 2.07-4.47 4.16-4.82 3.8-0.64 4.92 3.88 4.92 3.88 0.39 2.3 0.73 4.92 0.73 7.59 0 9.53-0.83 16.67-0.91 17.32-1.01 0.53-2.02 1.12-3.03 1.76-0.7 0.45-0.9 1.38-0.45 2.07 0.29 0.45 0.77 0.69 1.26 0.69 0.28 0 0.56-0.08 0.81-0.24 12.3-7.91 25.68-6.27 25.81-6.25h0.05c0.02 0 0.03 0.01 0.05 0.01h0.1 0.05c0.05 0 0.1-0.01 0.15-0.01 0.05-0.01 0.09-0.01 0.14-0.02s0.09-0.03 0.14-0.04c0.05-0.02 0.09-0.03 0.13-0.05l0.12-0.06c0.04-0.02 0.09-0.05 0.13-0.08 0.03-0.02 0.07-0.05 0.1-0.08 0.04-0.03 0.08-0.07 0.12-0.11 0.03-0.03 0.06-0.06 0.08-0.09 0.03-0.04 0.07-0.09 0.1-0.13 0.02-0.03 0.04-0.07 0.06-0.1 0.03-0.05 0.05-0.1 0.07-0.16 0.01-0.04 0.03-0.07 0.04-0.11 0.02-0.06 0.03-0.12 0.04-0.18 0-0.03 0.01-0.05 0.02-0.07v-0.04c0-0.02 0.01-0.04 0.01-0.06 0.8-11.95-0.88-22.31-1.89-28.5-0.17-1.07-0.33-2.01-0.44-2.79-0.32-2.2 0.05-3.92 1.08-5.12 1.03-1.18 2.4-1.5 2.98-1.5 3.33 0 5.12 3.07 6.85 11.74 1.49 7.46 1.44 14.05 1.39 16.08-1.24 1.68-1.88 3.78-1.88 6.29 0 7.63-0.8 11.27-1.28 13.38-11 2-18 10.24-18 20 0 2 1.74 1.02 1.91 0.2 1.68-8.39 10.23-14.76 17.17-15.45 0.61-0.06 1.12-0.49 1.29-1.08 0.08-0.27 1.91-6.79 1.91-17.06 0-1.73 0.72-4.62 2.68-5.89 0.46-0.3 1.87-0.77 3.14-0.37 0.97 0.31 1.65 1.05 2.06 2.27 1.95 5.74 1.67 25.46 0.47 34.35z" fill="#E6B77E"/>
</svg>

<svg viewBox="0 0 128 128" xmlns="http://www.w3.org/2000/svg">
  <defs>
    <radialGradient id="a" cx="64.5" cy="63.981975" gradientTransform="matrix(1 0 0 0.9427 0 0)" gradientUnits="userSpaceOnUse" r="60.535">
      <stop offset=".6668" stop-color="#F9DDBD"/>
      <stop offset="1" stop-color="#EDC391"/>
    </radialGradient>
  </defs>
  <path d="M122,51.67 C121.09,48.99 119.33,47.93 118.01,47.5 C116.34,46.97 114.5,47.2 113.18,47.77 C113.14,44.56 112.86,39.4 111.72,33.67 C110.29,26.51 108.35,19.52 101.93,19.52 C101.53,19.52 101.05,19.58 100.55,19.7 C99.58,17.52 97.14,13.5 92.22,13.5 C90.62,13.5 88.07,14.32 86.17,16.64 C85.14,17.9 84.09,19.89 83.92,22.86 C82.95,22.23 81.73,21.82 80.2,21.82 C78.02,21.82 76.19,22.6 74.9,24.09 C73.76,25.41 72.54,27.95 73.14,32.51 C71.89,31.93 70.45,31.74 68.86,32.01 C66.67,32.37 65.09,33.95 64.01,35.56 C63.1,33.79 61.61,32.41 59.18,32.01 C57.59,31.75 56.14,31.93 54.9,32.51 C55.49,27.94 54.28,25.4 53.14,24.08 C51.85,22.6 50.02,21.81 47.84,21.81 C46.42,21.81 45.17,22.17 44.12,22.86 C43.95,19.88 42.9,17.89 41.87,16.63 C39.97,14.31 37.42,13.49 35.82,13.49 C30.9,13.49 28.46,17.5 27.49,19.69 C26.99,19.57 26.51,19.51 26.11,19.51 C19.68,19.51 17.75,26.5 16.32,33.66 C15.17,39.39 14.9,44.55 14.86,47.76 C13.53,47.2 11.7,46.96 10.03,47.5 C8.67,47.92 6.92,48.98 6,51.67 C3.72,58.36 4.26,78.82 5.41,87.36 C8.48,110.05 30.26,112.5 39.49,112.5 C51.15,112.5 59.45,104.7 63.01,98.01 C63.38,97.31 63.7,96.61 64,95.92 C64.3,96.63 64.62,97.32 64.99,98.01 C68.55,104.69 76.85,112.5 88.51,112.5 C97.73,112.5 119.52,110.05 122.59,87.36 C123.74,78.82 124.28,58.35 122,51.67 Z" fill="#F9DDBD"/>
  <path d="M122,51.67 C121.09,48.99 119.33,47.93 118.01,47.5 C113.83,46.16 110.83,48.56 110.36,52.69 C110.1,55 110.04,57.65 108.26,59.14 C106.89,60.29 104.93,60.34 103.14,60.34 C100.85,60.33 98.55,60.33 96.26,60.45 C85.68,61.03 75.27,64.49 66.44,70.36 C65.89,70.72 65.32,71.11 64.66,71.15 C64.1,71.18 63.56,70.95 63.05,70.71 C59.84,69.14 57.13,66.67 53.93,65.07 C50.5,63.36 46.64,62.73 42.84,62.27 C35.56,61.39 28.21,61.06 20.88,61.28 C19.99,61.31 19.02,61.31 18.32,60.76 C17.45,60.07 17.38,58.81 17.3,57.7 C16.98,53.41 15.81,45.64 9.98,47.51 C8.67,47.92 6.92,48.98 6,51.67 C3.72,58.36 4.26,78.82 5.41,87.36 C8.48,110.05 30.26,112.5 39.49,112.5 C51.15,112.5 59.45,104.7 63.01,98.01 C63.38,97.31 63.7,96.61 64,95.92 C64.3,96.63 64.62,97.32 64.99,98.01 C68.55,104.69 76.85,112.5 88.51,112.5 C97.73,112.5 119.52,110.05 122.59,87.36 C123.74,78.82 124.28,58.35 122,51.67 Z" fill="url(#a)"/>
  <path d="M122,51.67 C121.09,48.99 119.33,47.93 118.01,47.5 C116.34,46.97 114.5,47.2 113.18,47.77 C113.14,44.56 112.86,39.4 111.72,33.67 C110.29,26.51 108.35,19.52 101.93,19.52 C101.53,19.52 101.05,19.58 100.55,19.7 C99.58,17.52 97.14,13.5 92.22,13.5 C90.62,13.5 88.07,14.32 86.17,16.64 C85.14,17.9 84.09,19.89 83.92,22.86 C82.95,22.23 81.73,21.82 80.2,21.82 C78.02,21.82 76.19,22.6 74.9,24.09 C73.76,25.41 72.54,27.95 73.14,32.51 C71.89,31.93 70.45,31.74 68.86,32.01 C66.67,32.37 65.09,33.95 64.01,35.56 C63.1,33.79 61.61,32.41 59.18,32.01 C57.59,31.75 56.14,31.93 54.9,32.51 C55.49,27.94 54.28,25.4 53.14,24.08 C51.85,22.6 50.02,21.81 47.84,21.81 C46.42,21.81 45.17,22.17 44.12,22.86 C43.95,19.88 42.9,17.89 41.87,16.63 C39.97,14.31 37.42,13.49 35.82,13.49 C30.9,13.49 28.46,17.5 27.49,19.69 C26.99,19.57 26.51,19.51 26.11,19.51 C19.68,19.51 17.75,26.5 16.32,33.66 C15.17,39.39 14.9,44.55 14.86,47.76 C13.53,47.2 11.7,46.96 10.03,47.5 C8.67,47.92 6.92,48.98 6,51.67 C3.72,58.36 4.26,78.82 5.41,87.36 C8.48,110.05 30.26,112.5 39.49,112.5 C51.15,112.5 59.45,104.7 63.01,98.01 C63.38,97.31 63.7,96.61 64,95.92 C64.3,96.63 64.62,97.32 64.99,98.01 C68.55,104.69 76.85,112.5 88.51,112.5 C97.73,112.5 119.52,110.05 122.59,87.36 C123.74,78.82 124.28,58.35 122,51.67 Z M88.48,18.54 C89.71,17.04 91.39,16.5 92.21,16.5 C95.48,16.5 97.17,19.44 97.83,20.98 C97.43,21.28 97.03,21.63 96.67,22.04 C95.55,23.33 94.33,25.68 94.88,29.54 C95,30.34 95.15,31.3 95.33,32.39 C96.27,38.19 97.81,47.72 97.27,58.68 C95.58,58.58 92.7,58.55 89.14,59.02 C89.24,56.59 89.41,51.41 89.09,45.43 C88.59,36.14 87.42,27.73 87.21,26.72 C86.51,23.24 86.95,20.41 88.48,18.54 Z M77.16,26.06 C77.87,25.24 78.89,24.83 80.19,24.83 C84.09,24.83 84.55,28.88 84.77,30.94 C84.99,33 85.77,39.65 86.09,45.6 C86.43,51.97 86.2,57.43 86.12,59.49 L86.12,59.53 C83.37,60.07 80.36,60.92 77.27,62.25 C77.55,59.39 78,53.65 78,46.45 C78,42.16 77.21,38.08 76.63,35.11 C76.42,34.04 76.24,33.11 76.14,32.37 C75.71,29.49 76.07,27.31 77.16,26.06 Z M47.81,24.82 C49.11,24.82 50.13,25.24 50.84,26.05 C51.93,27.3 52.28,29.48 51.87,32.35 C51.76,33.09 51.58,34.02 51.38,35.09 C50.8,38.07 50.01,42.14 50.01,46.43 C50.01,53.62 50.46,59.37 50.74,62.23 C47.64,60.91 44.64,60.06 41.89,59.51 L41.89,59.47 C41.8,57.41 41.58,51.95 41.92,45.58 C42.37,37.19 43.33,30 43.65,27.89 C44,26 46.11,24.82 47.81,24.82 Z M35.79,16.5 C36.62,16.5 38.29,17.04 39.52,18.54 C41.05,20.41 41.49,23.24 40.79,26.72 C40.59,27.73 39.41,36.14 38.91,45.43 C38.59,51.41 38.76,56.59 38.86,59.02 C35.3,58.55 32.41,58.59 30.73,58.68 C30.19,47.72 31.73,38.18 32.67,32.39 C32.85,31.3 33,30.34 33.12,29.54 C33.67,25.68 32.45,23.33 31.33,22.04 C30.97,21.62 30.58,21.28 30.17,20.98 C30.83,19.44 32.52,16.5 35.79,16.5 Z M39.49,109.5 C29.01,109.5 11.04,106.57 8.39,86.95 C7.19,78.06 6.9,58.33 8.85,52.63 C9.27,51.41 9.94,50.67 10.91,50.36 C12.18,49.96 13.59,50.43 14.05,50.73 C16.01,52 16.73,54.89 16.73,56.62 C16.73,66.89 18.56,73.41 18.64,73.68 C18.81,74.27 19.32,74.74 19.93,74.76 C29,75 35,81 37.09,90.2 C37.28,91.01 39.07,91 39,90 C38,76 28.76,71.28 21,70 C20.51,67.89 19.72,64.25 19.72,56.62 C19.72,54.11 19,52 17.84,50.33 C17.78,48.31 17.73,41.73 19.23,34.26 C20.96,25.59 22.76,22.52 26.08,22.52 C26.66,22.52 28.04,22.83 29.06,24.02 C30.09,25.21 30.46,26.93 30.14,29.14 C30.03,29.93 29.88,30.86 29.7,31.93 C28.7,38.12 27.02,48.48 27.81,60.43 C27.81,60.45 27.82,60.47 27.82,60.49 L27.82,60.53 C27.82,60.56 27.83,60.58 27.84,60.61 C27.85,60.67 27.86,60.73 27.88,60.78 C27.89,60.82 27.91,60.86 27.92,60.9 C27.94,60.95 27.96,61 27.99,61.04 C28.01,61.08 28.03,61.12 28.06,61.15 C28.09,61.19 28.11,61.23 28.15,61.27 C28.18,61.31 28.21,61.34 28.24,61.37 C28.27,61.4 28.31,61.43 28.34,61.46 C28.38,61.49 28.41,61.52 28.45,61.55 C28.49,61.58 28.53,61.6 28.57,61.62 C28.61,61.64 28.65,61.67 28.7,61.69 C28.74,61.71 28.78,61.72 28.83,61.74 C28.88,61.76 28.92,61.77 28.97,61.78 C29.01,61.79 29.06,61.8 29.11,61.8 C29.16,61.81 29.21,61.81 29.26,61.81 L29.31,61.81 L29.41,61.81 C29.43,61.81 29.44,61.8 29.46,61.8 L29.51,61.8 C29.64,61.78 43.02,60.14 55.32,68.05 C55.57,68.21 55.85,68.29 56.13,68.29 C56.62,68.29 57.11,68.05 57.39,67.6 C57.84,66.9 57.64,65.98 56.94,65.53 C55.93,64.88 54.92,64.3 53.91,63.77 C53.83,63.12 53,55.98 53,46.45 C53,43.78 53.34,41.15 53.73,38.85 C53.81,38.71 54.96,33.85 58.65,34.99 C62,36 62,39 62.22,40.69 C62.33,42.16 62.3,44 62.04,46.34 C62.03,46.43 61.45,55.24 62.04,67.78 C62.16,70.27 62.4,72.69 62.63,75.04 C63.38,82.53 64.09,89.6 60.36,96.6 C57.19,102.55 49.82,109.5 39.49,109.5 Z M119.62,86.95 C116.97,106.57 98.99,109.5 88.52,109.5 C78.19,109.5 70.82,102.55 67.65,96.6 C66.76,94.92 66.09,93.22 65.62,91.38 C65.6,91.3 65.57,91.22 65.53,91.15 C66.71,85.73 66.18,80.35 65.62,74.74 C65.39,72.43 65.15,70.04 65.04,67.64 C64.46,55.28 65.03,46.63 65.03,46.6 C65.19,45.17 65.49,42.48 65.18,39.78 C65.77,38.2 67.25,35.31 69.34,34.96 C73.14,34.32 74.26,38.84 74.26,38.84 C74.65,41.14 74.99,43.76 74.99,46.43 C74.99,55.96 74.16,63.1 74.08,63.75 C73.07,64.28 72.06,64.87 71.05,65.51 C70.35,65.96 70.15,66.89 70.6,67.58 C70.89,68.03 71.37,68.27 71.86,68.27 C72.14,68.27 72.42,68.19 72.67,68.03 C84.97,60.12 98.35,61.76 98.48,61.78 L98.53,61.78 C98.55,61.78 98.56,61.79 98.58,61.79 L98.68,61.79 L98.73,61.79 C98.78,61.79 98.83,61.78 98.88,61.78 C98.93,61.77 98.97,61.77 99.02,61.76 C99.07,61.75 99.11,61.73 99.16,61.72 C99.21,61.7 99.25,61.69 99.29,61.67 L99.41,61.61 C99.45,61.59 99.5,61.56 99.54,61.53 C99.57,61.51 99.61,61.48 99.64,61.45 C99.68,61.42 99.72,61.38 99.76,61.34 C99.79,61.31 99.82,61.28 99.84,61.25 C99.87,61.21 99.91,61.16 99.94,61.12 C99.96,61.09 99.98,61.05 100,61.02 C100.03,60.97 100.05,60.92 100.07,60.86 C100.08,60.82 100.1,60.79 100.11,60.75 C100.13,60.69 100.14,60.63 100.15,60.57 C100.15,60.54 100.16,60.52 100.17,60.5 L100.17,60.46 C100.17,60.44 100.18,60.42 100.18,60.4 C100.98,48.45 99.3,38.09 98.29,31.9 C98.12,30.83 97.96,29.89 97.85,29.11 C97.53,26.91 97.9,25.19 98.93,23.99 C99.96,22.81 101.33,22.49 101.91,22.49 C105.24,22.49 107.03,25.56 108.76,34.23 C110.25,41.69 110.2,48.28 110.15,50.31 C108.91,51.99 108.27,54.09 108.27,56.6 C108.27,64.23 107.47,67.87 106.99,69.98 C95.99,71.98 88.99,80.22 88.99,89.98 C88.99,91.98 90.73,91 90.9,90.18 C92.58,81.79 101.13,75.42 108.07,74.73 C108.68,74.67 109.19,74.24 109.36,73.65 C109.44,73.38 111.27,66.86 111.27,56.59 C111.27,54.86 111.99,51.97 113.95,50.7 C114.41,50.4 115.82,49.93 117.09,50.33 C118.06,50.64 118.74,51.38 119.15,52.6 C121.1,58.34 120.82,78.06 119.62,86.95 Z" fill="#E6B77E"/>
</svg>
